src/assets/images/buttons/volpeon.svg

<svg height="31" viewBox="0 0 88 31" width="88" xmlns="http://www.w3.org/2000/svg" xmlns:xlink="http://www.w3.org/1999/xlink"><clipPath id="a"><path d="m0 0h88v31h-88z"/></clipPath><g clip-path="url(#a)"><path d="m0 0h88v31h-88z" fill="#e2d6ce"/><path d="m88 11v16l-1 1h-86l-1-1v-12h4l5 5h12l13-13 11 11h18l3 3h12z" fill="#a18b86"/><path d="m57 12.7c1.069 1.04.649 3.419 2 5.3l3 2h2v-7l-2-2h-9l-.631 1z" fill="#fff"/><path d="m61.5 9 3.5 2.5s4.616-5.004 6-6.5c.926-1 2-1 2-1-6.583 9.472-2.575 18.06 7.57 10 0 0 .229 1.202-.57 2-1.937 1.935-11 11-11 11l-2 1h-7l-1-1v-2s1.565-4.131 3.013-8c1.073-2.866.047-5-3.013-5h-6.631l-1.674-2 2.201-2.304c0-2.429.813-3.694 2.104-4.042v2.346h1c.76-1.405 2.657-2.346 4.381-2.346l-1.381 3.346h3.5z"/><path d="m72 27 2-2v2c3.198-4.197 6-4 8 0l-1 1h-8z"/><path d="m60.5 19c-.849 0-1.467-.339-2-1l-3.5 9-1 1h-3l-1-1v-2l2-7 5-5.3c2.479.502 1.462 4.716 3.5 6.3z"/><circle cx="56.5" cy="8.5" fill="#fff" r="1.386"/><path d="m88 27v4h-88v-13h31l9 9z"/><path d="m15 6h2v13h-2z"/><path d="m19.5 14.5c-1.677 1.352-1.794 3.893-1.76 4.383.021.308-.118.249-.74.867-.222-.278-.528-.48-.75-.758-.021-.026.328-3.649 3.25-4.492z"/><path d="m12 16.5c2.3-1.118 3.553 1.005 3.732 2.333.007.053.051.116.018.158-.219.277-.522.481-.741.759-.228-.274-.529-.483-.757-.757-.014-.017.192-.937-.565-1.821-.63-.737-1.547-.67-1.687-.672z"/><path d="m20.999 16.5c-.562.08-2.372.176-3.256 2.637-.149.413-.293.261-1.049.548-.079-.346-.297-.651-.376-.997 0 0 .91-1.813 2.419-2.268 1.108-.333 1.883-.028 2.262.08z"/><path d="m15 1v-1h2v1c0 3 1.992 4.473 5 5.5.823.281-1.476.647-2.5.5.995 1.128 3.498 2.718 5.5 3.478 1.51.572-1.975 2.02-5 1.022 0 0 .332.779.5 1.5.196.84-2.495-.473-3.5-1.5h-2c-1.014 1.087-3.698 2.294-3.5 1.5.165-.664.5-1.5.5-1.5-3.012 1.034-6.48-.492-5-1.022 1.993-.715 4.488-2.343 5.5-3.478-1.029.187-3.286-.234-2.5-.5 3.008-1.019 5-2.5 5-5.5z"/><path d="m15-7h2c0 3 4 6 8 7 1.518.379-2 1.345-4 1 0 0 1.498.77 3 1.5s-3.501 1.189-7-.5h-2c-3.487 1.646-8.532 1.232-7 .5 1.346-.643 3-1.5 3-1.5-2 .318-5.564-.687-4-1 5-1 8-4 8-7z"/><path d="m5 27-1-2v-3h1v3l.5 1 .5-1v-3h1v3l-1 2zm3 0v-4l1-1h2v4l-1 1zm1-4v3h1v-3zm6 4v2h-1v-6l1-1h2v4l-1 1zm0-4v3h1v-3zm5 4h-2v-4l1-1h2v2l-1 1h-1v1h2zm-1-4v1h1v-1zm3 4v-4l1-1h2v4l-1 1zm1-4v3h1v-3zm3 4v-5h2l1 1v4h-1v-4h-1v4zm-13-7v7h-1v-7z" fill="#fff"/></g></svg>

<svg width="88" height="31" viewBox="0 0 88 31" version="1.1" xmlns="http://www.w3.org/2000/svg"
    xmlns:xlink="http://www.w3.org/1999/xlink" xml:space="preserve" xmlns:serif="http://www.serif.com/">
    <clipPath id="_clip1">
        <rect x="0" y="0" width="88" height="31" />
    </clipPath>
    <g clip-path="url(#_clip1)">
        <rect id="BG" x="0" y="0" width="88" height="31" style="fill:rgb(226,214,206);" />
        <g id="L1">
            <g>
                <path d="M88,11L88,27L87,28L1,28L-0,27L-0,15L4,15L9,20L21,20L34,7L45,18L63,18L66,21L78,21L88,11Z"
                    style="fill:rgb(161,139,134);" />
            </g>
        </g>
        <g id="Dragon">
            <g>
                <path d="M57,12.7C58.069,13.74 57.649,16.119 59,18L62,20L64,20L64,13L62,11L53,11L52.369,12L57,12.7Z"
                    style="fill:white;" />
                <path
                    d="M61.5,9L65,11.5C65,11.5 69.616,6.496 71,5C71.926,4 73,4 73,4C66.417,13.472 70.425,22.06 80.57,14C80.57,14 80.799,15.202 80,16C78.063,17.935 69,27 69,27L67,28L60,28L59,27L59,25C59,25 60.565,20.869 62.013,17C63.086,14.134 62.06,12 59,12L52.369,12L50.695,10L52.896,7.696C52.896,5.267 53.709,4.002 55,3.654L55,6L56,6C56.76,4.595 58.657,3.654 60.381,3.654L59,7L62.5,7L61.5,9Z" />
                <path d="M72,27L74,25L74,27C77.198,22.803 80,23 82,27L81,28L73,28L72,27Z" />
                <path
                    d="M60.5,19C59.651,19 59.033,18.661 58.5,18L55,27L54,28L51,28L50,27L50,25L52,18L57,12.7C59.479,13.202 58.462,17.416 60.5,19Z" />
                <circle cx="56.5" cy="8.5" r="1.386" style="fill:white;" />
            </g>
        </g>
        <g id="FG">
            <g>
                <path d="M88,27L88,31L0,31L-0,18L31,18L40,27L88,27Z" />
                <rect x="15" y="6" width="2" height="13" />
                <path
                    d="M19.5,14.5C17.823,15.852 17.706,18.393 17.74,18.883C17.761,19.191 17.622,19.132 17,19.75C16.778,19.472 16.472,19.27 16.25,18.992C16.229,18.966 16.578,15.343 19.5,14.5Z" />
                <path
                    d="M12,16.5C14.3,15.382 15.553,17.505 15.732,18.833C15.739,18.886 15.783,18.949 15.75,18.991C15.531,19.268 15.228,19.472 15.009,19.75C14.781,19.476 14.48,19.267 14.252,18.993C14.238,18.976 14.444,18.056 13.687,17.172C13.057,16.435 12.14,16.502 12,16.5Z" />
                <path
                    d="M20.999,16.5C20.437,16.58 18.627,16.676 17.743,19.137C17.594,19.55 17.45,19.398 16.694,19.685C16.615,19.339 16.397,19.034 16.318,18.688C16.318,18.688 17.228,16.875 18.737,16.42C19.845,16.087 20.62,16.392 20.999,16.5Z" />
                <path
                    d="M15,1L15,0L17,0L17,1C17,4 18.992,5.473 22,6.5C22.823,6.781 20.524,7.147 19.5,7C20.495,8.128 22.998,9.718 25,10.478C26.51,11.05 23.025,12.498 20,11.5C20,11.5 20.332,12.279 20.5,13C20.696,13.84 18.005,12.527 17,11.5L15,11.5C13.986,12.587 11.302,13.794 11.5,13C11.665,12.336 12,11.5 12,11.5C8.988,12.534 5.52,11.008 7,10.478C8.993,9.763 11.488,8.135 12.5,7C11.471,7.187 9.214,6.766 10,6.5C13.008,5.481 15,4 15,1Z" />
                <path
                    d="M15,-7L17,-7C17,-4 21,-1 25,0C26.518,0.379 23,1.345 21,1C21,1 22.498,1.77 24,2.5C25.502,3.23 20.499,3.689 17,2L15,2C11.513,3.646 6.468,3.232 8,2.5C9.346,1.857 11,1 11,1C9,1.318 5.436,0.313 7,0C12,-1 15,-4 15,-7Z" />
            </g>
        </g>
        <path id="Text"
            d="M5,27L4,25L4,22L5,22L5,25L5.5,26L6,25L6,22L7,22L7,25L6,27L5,27ZM8,27L8,23L9,22L11,22L11,26L10,27L8,27ZM9,23L9,26L10,26L10,23L9,23ZM15,27L15,29L14,29L14,23L15,22L17,22L17,26L16,27L15,27ZM15,23L15,26L16,26L16,23L15,23ZM20,27L18,27L18,23L19,22L21,22L21,24L20,25L19,25L19,26L21,26L20,27ZM19,23L19,24L20,24L20,23L19,23ZM22,27L22,23L23,22L25,22L25,26L24,27L22,27ZM23,23L23,26L24,26L24,23L23,23ZM26,27L26,22L28,22L29,23L29,27L28,27L28,23L27,23L27,27L26,27ZM13,20L13,27L12,27L12,20L13,20Z"
            style="fill:white;" />
    </g>
</svg>
